public/assets/settings.svg

<?xml version="1.0" encoding="UTF-8"?>
<svg id="Layer_1" data-name="Layer 1" xmlns="http://www.w3.org/2000/svg" viewBox="0 0 256 256">
  <defs>
    <style>
      .cls-1 {
        fill: #cbd1ff;
        isolation: isolate;
        opacity: .2;
      }

      .cls-2 {
        stroke: #cbd1ff;
        stroke-linecap: round;
        stroke-linejoin: round;
        stroke-width: 16px;
      }

      .cls-2, .cls-3 {
        fill: none;
      }
    </style>
  </defs>
  <rect class="cls-3" width="256" height="256"/>
  <path class="cls-1" d="m230.1,108.76l-31.85-18.14c-.64-1.16-1.31-2.29-2-3.41l-.12-36c-10.07-8.49-21.65-15.01-34.13-19.21l-32,17.89h-4l-32-17.89c-12.48,4.21-24.05,10.74-34.11,19.25l-.16,36c-.7,1.12-1.37,2.26-2,3.41l-31.84,18.1c-2.51,12.7-2.51,25.76,0,38.46l31.85,18.14c.64,1.16,1.31,2.29,2,3.41l.12,36c10.07,8.5,21.65,15.03,34.14,19.23l32-17.87h4l32,17.87c12.47-4.21,24.03-10.75,34.08-19.25l.16-36c.7-1.12,1.37-2.26,2-3.41l31.84-18.1c2.52-12.7,2.53-25.78.02-38.48Zm-102.1,59.24c-22.09,0-40-17.91-40-40s17.91-40,40-40,40,17.91,40,40-17.91,40-40,40Z"/>
  <circle class="cls-2" cx="128" cy="128" r="40"/>
  <path class="cls-2" d="m130.05,206.11h-4l-32.05,17.89c-12.48-4.2-24.05-10.71-34.11-19.2l-.12-36c-.71-1.12-1.38-2.25-2-3.41l-31.87-18.15c-2.51-12.7-2.51-25.76,0-38.46l31.84-18.1c.65-1.15,1.32-2.29,2-3.41l.16-36c10.05-8.51,21.62-15.05,34.1-19.27l32,17.89h4l32-17.89c12.48,4.2,24.05,10.71,34.11,19.2l.12,36c.71,1.12,1.38,2.25,2,3.41l31.85,18.14c2.51,12.7,2.51,25.76,0,38.46l-31.84,18.1c-.65,1.15-1.32,2.29-2,3.41l-.16,36c-10.04,8.51-21.61,15.06-34.08,19.28l-31.95-17.89Z"/>
</svg>

<svg xmlns="http://www.w3.org/2000/svg" viewBox="0 0 256 256"><rect width="256" height="256" fill="none"/><path d="M230.1,108.76,198.25,90.62c-.64-1.16-1.31-2.29-2-3.41l-.12-36A104.61,104.61,0,0,0,162,32L130,49.89c-1.34,0-2.69,0-4,0L94,32A104.58,104.58,0,0,0,59.89,51.25l-.16,36c-.7,1.12-1.37,2.26-2,3.41l-31.84,18.1a99.15,99.15,0,0,0,0,38.46l31.85,18.14c.64,1.16,1.31,2.29,2,3.41l.12,36A104.61,104.61,0,0,0,94,224l32-17.87c1.34,0,2.69,0,4,0L162,224a104.58,104.58,0,0,0,34.08-19.25l.16-36c.7-1.12,1.37-2.26,2-3.41l31.84-18.1A99.15,99.15,0,0,0,230.1,108.76ZM128,168a40,40,0,1,1,40-40A40,40,0,0,1,128,168Z" opacity="0.2"/><circle cx="128" cy="128" r="40" fill="none" stroke="currentColor" stroke-linecap="round" stroke-linejoin="round" stroke-width="16"/><path d="M130.05,206.11c-1.34,0-2.69,0-4,0L94,224a104.61,104.61,0,0,1-34.11-19.2l-.12-36c-.71-1.12-1.38-2.25-2-3.41L25.9,147.24a99.15,99.15,0,0,1,0-38.46l31.84-18.1c.65-1.15,1.32-2.29,2-3.41l.16-36A104.58,104.58,0,0,1,94,32l32,17.89c1.34,0,2.69,0,4,0L162,32a104.61,104.61,0,0,1,34.11,19.2l.12,36c.71,1.12,1.38,2.25,2,3.41l31.85,18.14a99.15,99.15,0,0,1,0,38.46l-31.84,18.1c-.65,1.15-1.32,2.29-2,3.41l-.16,36A104.58,104.58,0,0,1,162,224Z" fill="none" stroke="currentColor" stroke-linecap="round" stroke-linejoin="round" stroke-width="16"/></svg>
